X: 102
T:Yr Ysnr (The Blizzard)
M:4/4
L:1/8
C:Mats Eden
R:Schottische
Z:Steve Mansfield
K:Dm
d2cd d2cd | fedc d2cd | d2cd B2AB | G2FG A4 | d2cd d2cd | fedc d3c |
B2AG g3e | dcBd c4 :: D2EF DEFG | A2Ac B3A | G2FG A2F2 | EFEC D4:|
|: AdcA A2GF | AdcA B2G2 | eedc d2c2 | eedc d2cB |
AdcA A2GF | AdcA B4 | eedc d2cd | ecde f4 :|

